!!!OTL: MIN VATER ISCHT A APPAZELLER
!!!ARE: Europa, Mitteleuropa, Schweizland
!!!SCT: B0698
!!!YEM: Copyright 1995, estate of Helmut Schaffrath.
**kern
*ICvox
*Ivox
*M2/4
*k[f#c#g#]
*A:
{8c#
=1
8d
8f#
8c#
8e
=2
8B
8B
4e}
=3
{16cc#
16e
8dd
16b
16e
8cc#
=4
16a
16g#
16a
16cc#
8e}
{8c#
=5
8d
8f#
8c#
8e
=6
8B
8B
4e}
=7
{16cc#
16e
16e
16dd
16b
16e
16e
16cc#
=8
4.a}
==
!!!AGN: Scherz - Lied
!!!ONB: ESAC (Essen Associative Code) Database: BOEHME
!!!AMT: simple duple
!!!AIN: vox
!!!EED: Helmut Schaffrath
!!!EEV: 1.0
*-
